!!!COM: Palestrina, Giovanni Perluigi da
!!!OPR: Missa Quinti toni
!!!OMD: Benedictus
!!!OTL: Hosanna
**kern	**kern	**kern	**kern	**kern	**kern
*Ibass	*Itenor	*Itenor	*Icalto	*Icant	*Icant
!Bassus	!Tenor 2	!Tenor 1	!Altus	!Cantus 2	!Cantus 1
*clefF4	*clefGv2	*clefGv2	*clefG2	*clefG2	*clefG2
*k[b-]	*k[b-]	*k[b-]	*k[b-]	*k[b-]	*k[b-]
*F:ion	*F:ion	*F:ion	*F:ion	*F:ion	*F:ion
*M4/2	*M4/2	*M4/2	*M4/2	*M4/2	*M4/2
=35	=35	=35	=35	=35	=35
1r	0r	1c	1g	1r	0r
1G	.	2g	2b-	1dd	.
.	.	2g	2b-	.	.
=36	=36	=36	=36	=36	=36
2d	0r	2f	2a	2ff	0r
2d	.	2d	2f	2ff	.
1c	.	1e	4g	2ee	.
.	.	.	4f	.	.
.	.	.	4g	2cc	.
.	.	.	4a	.	.
=37	=37	=37	=37	=37	=37
1B-	0r	1f	1b-	4dd	0r
.	.	.	.	4cc	.
.	.	.	.	4dd	.
.	.	.	.	4ee	.
1d	.	1f	2.a	[1ff	.
.	.	.	4b-	.	.
=38	=38	=38	=38	=38	=38
2c	0r	1g	2cc	2ff]	2r
2c	.	.	2c	2ee	2g
2G	.	2g	2.d	4dd	2b-
.	.	.	.	4b-	.
2B-	.	[2f	.	[2dd	2b-
.	.	.	4e	.	.
=39	=39	=39	=39	=39	=39
2F	0r	4f]	1f	4dd]	2a
.	.	4e	.	4cc	.
2A	.	2c	.	1cc	2f
[1G	.	1d	1r	.	[1g
.	.	.	.	4b	.
.	.	.	.	4a	.
=40	=40	=40	=40	=40	=40
1G]	1d	1r	0r	1b	1g]
1F	2f	1A	.	[1cc	1a
.	2f	.	.	.	.
=41	=41	=41	=41	=41	=41
1C	2e	2c	2r	1cc]	1g
.	2c	2c	2g	.	.
1r	4d	2B-	2b-	2r	1r
.	4c	.	.	.	.
.	4d	2G	2b-	2dd	.
.	4e	.	.	.	.
=42	=42	=42	=42	=42	=42
0r	1f	1d	2a	2dd	2r
.	.	.	2f	2dd	2a
.	1e	2c	4g	2ee	2cc
.	.	.	4f	.	.
.	.	2c	4g	2ee	2cc
.	.	.	4a	.	.
=43	=43	=43	=43	=43	=43
0r	0d	4G	1b-	1gg	1.dd
.	.	4A	.	.	.
.	.	4B-	.	.	.
.	.	4c	.	.	.
.	.	4d	2a	1ff	.
.	.	4e	.	.	.
.	.	[2f	4g	.	2b-
.	.	.	4f	.	.
=44	=44	=44	=44	=44	=44
1r	1c	2f]	1g	0r	1cc
.	.	2e	.	.	.
1D	1d	2f	[1f	.	2a
.	.	2F	.	.	2a
=45	=45	=45	=45	=45	=45
2F	2c	2.A	1f]	0r	2a
2F	2.d	.	.	.	2a
.	.	4B-	.	.	.
2E	.	1c	2r	.	2g
.	4c	.	.	.	.
2C	[2c	.	2e	.	2g
=46	=46	=46	=46	=46	=46
0D	2c]	0F	2f	2r	0dd
.	4B	.	2f	2dd	.
.	4A	.	.	.	.
.	1B	.	1d	2ff	.
.	.	.	.	2ff	.
=47	=47	=47	=47	=47	=47
1C	1c	2r	1e	2ee	1g
.	.	2G	.	2cc	.
1BB-	[1F	2B-	1f	4dd	1r
.	.	.	.	4cc	.
.	.	2B-	.	4dd	.
.	.	.	.	4ee	.
=48	=48	=48	=48	=48	=48
1D	1F]	2A	2f	1ff	1a
.	.	2F	2d	.	.
1C	2r	4G	2e	1ee	2cc
.	.	4F	.	.	.
.	2c	4G	2e	.	2cc
.	.	4A	.	.	.
=49	=49	=49	=49	=49	=49
1G	2d	1B-	1g	2.dd	2b-
.	2B-	.	.	.	2g
.	.	.	.	4ee	.
1F	2c	1A	2c	2ff	4a
.	.	.	.	.	4g
.	2c	.	[2f	2f	4a
.	.	.	.	.	4b-
=50	=50	=50	=50	=50	=50
0C	0c	0G	2f]	1g	0cc
.	.	.	4e	.	.
.	.	.	4d	.	.
.	.	.	1e	1g	.
=51	=51	=51	=51	=51	=51
0F	0A	0F	0f	0a	0cc
==	==	==	==	==	==
*-	*-	*-	*-	*-	*-
!!!CDT: 1525/^1526/-1594/2/2
!!!OCY: Italia
!!!AGN: Mass (Free)
!!!AST: renaissance, vocal
!!!ASW: Motet 1532 (Penet)
!!!PWK: Masses, Book 10
!!!RNB: Cadence finals: C
!!!YOR: Le Opere Complete, v. 27, p. 120
!!!YOO: Rome, Italy: Fratelli Scalera
!!!END: 1992//
!!!EED: John Miller
!!!YEC: Copyright 2000, John Miller
!!!YEN: United States of America
!!!YEM: Rights to all derivative electronic formats reserved.
!!!YEM: Refer to licensing agreement for further details.
!!!YEM: This file must be accompanied by the licensing agreement.
!!!YEM: A copy of the licensing agreement may be found at http://www.music-cog.ohio-state.edu/HumdrumDatabases/Palestrina/license.txt
!!!EMD: converted to Humdrum by Bret Aarden
